X: 21692
T: SIR JOHN HENDERSON
C: Neil Gow
Q: "Jig."
%R: jig
B: W. Hamilton "Universal Tune-Book" Vol. 2 Glasgow 1846 p.169 #2
S: http://s3-eu-west-1.amazonaws.com/itma.dl.printmaterial/book_pdfs/hamiltonvol2web.pdf
Z: 2016 John Chambers <jc:trillian.mit.edu>
M: 6/8
L: 1/8
K: G
% - - - - - - - - - - - - - - - - - - - - - - - - -
c |\
B2G GBG | dBG Bcd | efg dBd | ecA A2c |\
B2G GBG | dBG Bcd | efg dBg | dBG G2 :|
|: d |\
gdg gbg | gbg afd | efg dBd | ecA A2f |\
gdg gbg | gbg afd | efg dBg | dBG G2 :|
% - - - - - - - - - - - - - - - - - - - - - - - - -

%%sep 1 1 500
%%sep 1 1 500

